images/tg.svg

<svg width="16" height="16" viewBox="0 0 16 16" fill="none" xmlns="http://www.w3.org/2000/svg">
<path d="M11.4496 0.466702L3.92461 2.9667C-1.13372 4.65837 -1.13372 7.4167 3.92461 9.10004L6.15794 9.8417L6.89961 12.075C8.58294 17.1334 11.3496 17.1334 13.0329 12.075L15.5413 4.55837C16.6579 1.18337 14.8246 -0.658298 11.4496 0.466702ZM11.7163 4.95004L8.54961 8.13337C8.42461 8.25837 8.26628 8.3167 8.10794 8.3167C7.94961 8.3167 7.79128 8.25837 7.66628 8.13337C7.42461 7.8917 7.42461 7.4917 7.66628 7.25004L10.8329 4.0667C11.0746 3.82504 11.4746 3.82504 11.7163 4.0667C11.9579 4.30837 11.9579 4.70837 11.7163 4.95004Z" fill="#292D32"/>
</svg>

<svg xmlns="http://www.w3.org/2000/svg" width="16" height="16" fill="none"><path fill="#292D32" d="m11.45.467-7.525 2.5c-5.059 1.691-5.059 4.45 0 6.133l2.233.742.742 2.233c1.683 5.058 4.45 5.058 6.133 0l2.508-7.517c1.117-3.375-.716-5.216-4.091-4.091Zm.266 4.483L8.55 8.133a.618.618 0 0 1-.442.184.618.618 0 0 1-.442-.184.629.629 0 0 1 0-.883l3.167-3.183a.629.629 0 0 1 .883 0 .629.629 0 0 1 0 .883Z"/></svg>
